!!!!SEGMENT: pl-wn--sd-xvi-qu-273--028_gomolka-mikolaj--krolu-niebieski-zdrowie-dusze-mojej.krn
!!!cenid: 15xx:233
!!!COM: Gomółka, Mikołaj
!!!COM-rismid: pe30013343
!!!CDT: ~1535->1591/04/30
!!!CNT: Polish
!!!GTL: Melodiae na psalterz polski
!!!OTL: XXVIII. Królu niebieski, zdrowie dusze mojej,
!!!PDT: 1580
!!!AGN: Sacred
!!!SMS-siglum: PL-Wn
!!!SMS-shelfmark: SD XVI.Qu.273
!!!SMS-shelfwork: 028 G
!!!NIFC-rismid:
!!!ONB-nifc: Melodiae na psalterz polski
**kern	**text	**kern	**text	**kern	**text	**kern	**text
*part4	*part4	*part3	*part3	*part2	*part2	*part1	*part1
*staff4	*staff4	*staff3	*staff3	*staff2	*staff2	*staff1	*staff1
*clefF3	*	*clefC3	*	*clefC2	*	*clefG2	*
*k[b-]	*	*k[b-]	*	*k[b-]	*	*k[b-]	*
*g:	*	*g:	*	*g:	*	*g:	*
*M4/2	*	*M4/2	*	*M4/2	*	*M4/2	*
*met(C|)	*	*met(C|)	*	*met(C|)	*	*met(C|)	*
*	*verse[1]	*	*verse[1]	*	*verse[1]	*	*verse[1]
=-	=-	=-	=-	=-	=-	=-	=-
1G	Kró-	1G	Kró-	1d	Kró-	1g	Kró-
2.d	-lu	2G	-(lu)	2d	-(lu)	2g	-lu
.	.	1G	nie-	2g	nie-	2g	nie-
4c	nie-	.	.	.	.	.	.
=3-	=3-	=3-	=3-	=3-	=3-	=3-	=3-
2.B-	-bie-	.	.	4b-	-bie-	1dd	-bie-
.	.	.	.	4a	.	.	.
.	.	4d	-bie-	4g	.	.	.
4A	.	4c	.	4f#X	.	.	.
4G	.	4B-	.	4g	.	2dd	-ʃťi,
4F#X	.	4A	.	4a	.	.	.
2G	-ʃťi,	2B-	-ʃťi,	2g	-ʃťi,	2.dd	zdro-
=4-	=4-	=4-	=4-	=4-	=4-	=4-	=4-
2D	zdro-	2A	zdro-	2f	zdro-	.	.
.	.	.	.	.	.	4cc	.
2D	-wié	2d	-(wié)	2f#X	-(wié)	4b-/	-wié
.	.	.	.	.	.	4a/	.
2G	du-	2d	du-	2.g	du-	1b-	du-
2G	.	2d	.	.	.	.	.
.	.	.	.	4f#	.	.	.
=5-	=5-	=5-	=5-	=5-	=5-	=5-	=5-
2A	-ße	2c#X	-ße	2e/	-ße	2a	-ße
2B-	mo-	2.d	mo-	4d	mo-	2g	mo-
.	.	.	.	4e	.	.	.
1A	.	.	.	4f	.	1a	.
.	.	8c#L	.	8eL/	.	.	.
.	.	8B-J	.	8dJ/	.	.	.
.	.	8c#/	.	8eL/	.	.	.
.	.	4d\	.	8fJ	.	.	.
.	.	.	.	4e	.	.	.
.	.	8c#/	.	.	.	.	.
=6-	=6-	=6-	=6-	=6-	=6-	=6-	=6-
2D	-iéy	2d	-iéy	2f#X	-iéy	2a	-iéy
2d	Do	2f	Do	2a	Do	2dd	Do
2c	ćie-	2e	ćie-	2cc	ćie-	2ee	ćie-
4B-	-bie	4d	-bie	2fn	-bie	2ff	-bie
4A	.	4c	.	.	.	.	.
=7-	=7-	=7-	=7-	=7-	=7-	=7-	=7-
4G	wo-	4B-/	wo-	1b-	wo-	1gg	wo-
4A	.	4c	.	.	.	.	.
4B-	.	4d\	.	.	.	.	.
4c	.	4e\	.	.	.	.	.
2d	-łam:	4f\	-łam:	2a	-(łam):	2ff	-łam,
.	.	4d\	.	.	.	.	.
2G	á	2g	á	2b-	á	2dd	á
!!LO:PB:g=original
=8-	=8-	=8-	=8-	=8-	=8-	=8-	=8-
2.D	ty	1f	ty_twt-	1a	Ty_twa-	2.ff	ty
.	.	.	.	.	.	.	.
4E	twa-	.	.	.	.	4ee	twa-
4F/	-rӡy	2f	-rӡy	2.a	-rӡy	2dd	-rӡy
4G\	.	.	.	.	.	.	.
2A	swo-	2e	swo-	.	.	2cc#X	swo-
.	.	.	.	4g	swo-	.	.
=9-	=9-	=9-	=9-	=9-	=9-	=9-	=9-
2D	-iéy	2d	-iéy	2f#X	-iéy	2dd	-iéy
2.G	Nie	2B-	Nie	2g	Nie	2dd	Nie
.	.	2B-	ťryy	2.g	ťryy	2b-/	ťr(yy)
4F/	ťryy	.	.	.	.	.	.
4E-X	prze-	2B-	prze-	.	.	2b-/	prӡe-
4D	.	.	.	4f#	prze-	.	.
=10-	=10-	=10-	=10-	=10-	=10-	=10-	=10-
4C	-de	1c	-de	4e-X/	-(de	1ee	-(de
4BB-	.	.	.	4d/	.	.	.
2C	.	.	.	4e-/	.	.	.
.	.	.	.	4f\	.	.	.
2G	mna	2B-	mna	4g	mna)	2dd	mna)
.	.	.	.	4a	.	.	.
2G	ál-	2d	ál-	4b-	ál-	2dd	ál-
.	.	.	.	4a	.	.	.
=11-	=11-	=11-	=11-	=11-	=11-	=11-	=11-
2E-X	-bo_mie	4e	-bo	4g	-bo	4cc	-bo
.	.	4d	mie	4f	mie	4b-/	mie
!	!LO:"z z ."	!	!LO:"z z ."	!	!LO:"z z ."	!	!LO:"z z ."
2G	iuӡ	4d	iuӡ	4d	iuӡ	2b-/	iuӡ
.	.	8cL/	.	4e	.	.	.
.	.	8B-J/	.	.	.	.	.
2F/	ӡ_té-	2c/	ӡ_té-	2.f	ӡ_té-	2b-/	ӡ_té-
2F/	-mi	2c/	-mi	.	.	2a	-(mi)
.	.	.	.	4e	-mi	.	.
=12-	=12-	=12-	=12-	=12-	=12-	=12-	=12-
1BB-	Licz,	1B-	Licz	1d	Licz	1b-	Licz
1D	co	2.A	co	1d	co	2.f	co
.	.	4B-	.	.	.	4g	.
=13-	=13-	=13-	=13-	=13-	=13-	=13-	=13-
2C	.	4c	.	2e-X	.	4a	.
.	.	4B-	.	.	.	4g	.
2E-X	ʃą	4A	ʃą	2c	ʃą	1g	ʃą
.	.	4G	.	.	.	.	.
!	!LO:"ź"	!	!LO:"ź"	!	!LO:"ź"	!	!LO:"ź"
1D	w_ӡie-	1A	w_ӡie-	1d	w_ӡie-	.	.
.	.	.	.	.	.	2f	w_ӡie-
=14-	=14-	=14-	=14-	=14-	=14-	=14-	=14-
!!LO:N:vis=00
0G	-mi.	0G/	-mi.	0d/	-mi.	0g/	-mi.
=-	=-	=-	=-	=-	=-	=-	=-
*-	*-	*-	*-	*-	*-	*-	*-
!!!RDF**kern: l = terminal long
!!!system-decoration: s1,s2,s3,s4
!!!ENC:Anna Matuszewska
!!!END:2020-02-06
!!!URL-scan: https://polona.pl/item/melodiae-na-psalterz-polski,Nzk3MTM4ODQ/77 Scan on Polona
!!!IIIF: https://polona.pl/iiif/item/Nzk3MTM4ODQ/manifest.json
